src/icons/SVG/32px/Navigation_Arrow_Up_32px.svg

<svg width="32" height="32" viewBox="0 0 32 32" fill="none" xmlns="http://www.w3.org/2000/svg">
  <g id="Square"> </g>
  <g id="Icon">
<path id="Vector" d="M15 28C15 28.5523 15.4477 29 16 29C16.5523 29 17 28.5523 17 28H15ZM16 4L16.7071 3.29289C16.3166 2.90237 15.6834 2.90237 15.2929 3.29289L16 4ZM7.29289 11.2929C6.90237 11.6834 6.90237 12.3166 7.29289 12.7071C7.68342 13.0976 8.31658 13.0976 8.70711 12.7071L7.29289 11.2929ZM23.2929 12.7071C23.6834 13.0976 24.3166 13.0976 24.7071 12.7071C25.0976 12.3166 25.0976 11.6834 24.7071 11.2929L23.2929 12.7071ZM17 28V4H15V28H17ZM15.2929 3.29289L7.29289 11.2929L8.70711 12.7071L16.7071 4.70711L15.2929 3.29289ZM15.2929 4.70711L23.2929 12.7071L24.7071 11.2929L16.7071 3.29289L15.2929 4.70711Z" fill="black"/>
</g>
</svg>

<svg xmlns="http://www.w3.org/2000/svg" viewBox="0 0 32 32">
  <g id="Square"> </g>
  <path d="M15 28a1 1 0 102 0h-2zm1-24l.707-.707a1 1 0 00-1.414 0L16 4zm-8.707 7.293a1 1 0 101.414 1.414l-1.414-1.414zm16 1.414a1 1 0 001.414-1.414l-1.414 1.414zM17 28V4h-2v24h2zM15.293 3.293l-8 8 1.414 1.414 8-8-1.414-1.414zm0 1.414l8 8 1.414-1.414-8-8-1.414 1.414z"/>
</svg>
